X:156
T: Der grausame Bruder
N: Q0068A
O: Mitteleuropa, Deutschland / Frankreich, Elsass
R: Ballade, Schwangerschaft, Moral, Mord
M: 2/4
L: 1/8
K: G
D | G2_B2 | A2d2 | c_BA
D | G2_B2 | A2d2 | c_BA
B | cccd | _BAG
D | G2A2 | _Bcd2 | _B2AG | G2z

@@@ Tune index: 1032
